X: 614
%
U:~=!turn!
T: The Triumph
C:
O:Scotland
B:Keith Norman MacDonald : "The Skye collection of the best reels & strathspeys extant" : 1887
Z:Ralph Palmer
R:Reel
N:Country Dance
M:C
L:1/8
K:A
a !segno!| eccA dBBG | Aaag (gf)(fa) | eccA dBBG | A2 c2 A2 ::
z2 | [E2B2] e2 c2 e2 | [E2B2] e2 c2 e2 | BBBd ccce | c2 B2 A2 :|
z2 | Tc2 (cd) e2 c2 | TB2 (Bc) {/c}d2 B2 | cBcd eagf | edcB {cB} A2 (AB) |
Tc2 (cd) fedc | TB2 (Bc) edcB | c2 (cd) eagf | edcB Aagf !segno!|]


